X: 3
T:Country Gardens, Longborough (CJS)
M:4/4
L:1/8
Q:1/4=150
A:Longborough
P:A(AB2)5
K:G
P:A
|:g2g=f e2e2|dedc  B2Bc|d2G2 A>Bc>A|B3A   G4:|
P:B
g2ge =f2d2|g2ge =f2d2|g2g2 e2g2  |ag=fe d4|
g2g=f e2e2|dedc  B2Bc|d2G2 A>Bc>A|B3A   G4||
